src/images_karasa_Jaga_svg/cmd/sc_aligntop.svg

<?xml version="1.0" encoding="UTF-8" standalone="no"?>
<!-- Created with Inkscape (http://www.inkscape.org/) -->

<svg
   xmlns:dc="http://purl.org/dc/elements/1.1/"
   xmlns:cc="http://creativecommons.org/ns#"
   xmlns:rdf="http://www.w3.org/1999/02/22-rdf-syntax-ns#"
   xmlns:svg="http://www.w3.org/2000/svg"
   xmlns="http://www.w3.org/2000/svg"
   xmlns:xlink="http://www.w3.org/1999/xlink"
   xmlns:sodipodi="http://sodipodi.sourceforge.net/DTD/sodipodi-0.dtd"
   xmlns:inkscape="http://www.inkscape.org/namespaces/inkscape"
   width="128"
   height="128"
   id="svg2606"
   sodipodi:version="0.32"
   inkscape:version="0.92.3 (unknown)"
   version="1.0"
   sodipodi:docname="sc_aligntop.svg"
   inkscape:output_extension="org.inkscape.output.svgz.inkscape"
   inkscape:export-filename="/home/rizmut/Dokumen/Rizmut/Github/libreoffice-style-karasa-jaga/build/images_karasa_Jaga/cmd/sc_aligntop.png"
   inkscape:export-xdpi="12"
   inkscape:export-ydpi="12">
  <defs
     id="defs2608">
    <inkscape:perspective
       sodipodi:type="inkscape:persp3d"
       inkscape:vp_x="0 : 64 : 1"
       inkscape:vp_y="0 : 1000 : 0"
       inkscape:vp_z="128 : 64 : 1"
       inkscape:persp3d-origin="64 : 42.666667 : 1"
       id="perspective44" />
    <linearGradient
       id="linearGradient6111">
      <stop
         style="stop-color:#9c0f0f;stop-opacity:1;"
         offset="0"
         id="stop6113" />
      <stop
         id="stop7088"
         offset="0.5"
         style="stop-color:#e81919;stop-opacity:1;" />
      <stop
         style="stop-color:#cd1313;stop-opacity:1;"
         offset="1"
         id="stop6115" />
    </linearGradient>
    <linearGradient
       id="linearGradient10207">
      <stop
         style="stop-color:#a2a2a2;stop-opacity:1;"
         offset="0"
         id="stop10209" />
      <stop
         style="stop-color:#ffffff;stop-opacity:1;"
         offset="1"
         id="stop10211" />
    </linearGradient>
    <linearGradient
       id="XMLID_12_"
       gradientUnits="userSpaceOnUse"
       x1="96"
       y1="104"
       x2="88.000198"
       y2="96.000198">
      <stop
         offset="0"
         style="stop-color:#888A85"
         id="stop83" />
      <stop
         offset="0.0072"
         style="stop-color:#8C8E89"
         id="stop85" />
      <stop
         offset="0.0673"
         style="stop-color:#ABACA9"
         id="stop87" />
      <stop
         offset="0.1347"
         style="stop-color:#C5C6C4"
         id="stop89" />
      <stop
         offset="0.2652576"
         style="stop-color:#DBDBDA"
         id="stop91" />
      <stop
         offset="0.37646064"
         style="stop-color:#EBEBEB"
         id="stop93" />
      <stop
         offset="0.48740286"
         style="stop-color:#F7F7F6"
         id="stop95" />
      <stop
         offset="0.6324091"
         style="stop-color:#FDFDFD"
         id="stop97" />
      <stop
         offset="1"
         style="stop-color:#FFFFFF"
         id="stop99" />
    </linearGradient>
    <radialGradient
       id="XMLID_8_"
       cx="102"
       cy="112.3047"
       r="139.55859"
       gradientUnits="userSpaceOnUse">
      <stop
         offset="0"
         style="stop-color:#b7b8b9;stop-opacity:1;"
         id="stop41" />
      <stop
         offset="0.18851049"
         style="stop-color:#ECECEC"
         id="stop47" />
      <stop
         offset="0.25718147"
         style="stop-color:#FAFAFA"
         id="stop49" />
      <stop
         offset="0.30111277"
         style="stop-color:#FFFFFF"
         id="stop51" />
      <stop
         offset="0.5313"
         style="stop-color:#FAFAFA"
         id="stop53" />
      <stop
         offset="0.8449"
         style="stop-color:#EBECEC"
         id="stop55" />
      <stop
         offset="1"
         style="stop-color:#E1E2E3"
         id="stop57" />
    </radialGradient>
    <clipPath
       clipPathUnits="userSpaceOnUse"
       id="clipPath7084">
      <path
         style="fill:#000000;fill-opacity:1;fill-rule:evenodd;stroke:none;stroke-width:1px;stroke-linecap:butt;stroke-linejoin:miter;stroke-opacity:1"
         d="M 72,88 L 40,120 L 32,120 L 32,80 L 72,80 L 72,88 z"
         id="path7086" />
    </clipPath>
    <filter
       inkscape:collect="always"
       id="filter2770">
      <feGaussianBlur
         inkscape:collect="always"
         stdDeviation="2.0786429"
         id="feGaussianBlur2772" />
    </filter>
    <radialGradient
       inkscape:collect="always"
       xlink:href="#XMLID_8_"
       id="radialGradient2306"
       gradientUnits="userSpaceOnUse"
       gradientTransform="matrix(0.96492761,0,0,0.96460465,-1.6360858,11.875114)"
       cx="108"
       cy="128.54001"
       r="139.55859"
       fx="108"
       fy="128.54001" />
    <linearGradient
       id="linearGradient2399-4">
      <stop
         style="stop-color:#03519e;stop-opacity:1"
         offset="0"
         id="stop2401-6" />
      <stop
         style="stop-color:#044c96;stop-opacity:1"
         offset="1"
         id="stop2403-5" />
    </linearGradient>
    <linearGradient
       inkscape:collect="always"
       xlink:href="#linearGradient2399-4"
       id="linearGradient3358"
       gradientUnits="userSpaceOnUse"
       gradientTransform="matrix(-5.5029337e-4,-1.1218461,1.1218461,-5.5029337e-4,71.704181,169.18074)"
       x1="113.15723"
       y1="25.786163"
       x2="39.268185"
       y2="25.786163" />
  </defs>
  <sodipodi:namedview
     id="base"
     pagecolor="#ffffff"
     bordercolor="#666666"
     borderopacity="1.0"
     inkscape:pageopacity="0.0"
     inkscape:pageshadow="2"
     inkscape:zoom="4.0000001"
     inkscape:cx="89.252457"
     inkscape:cy="57.636394"
     inkscape:document-units="px"
     inkscape:current-layer="layer1"
     width="128px"
     height="128px"
     showgrid="true"
     inkscape:grid-points="true"
     showguides="true"
     inkscape:guide-bbox="true"
     inkscape:window-width="1366"
     inkscape:window-height="706"
     inkscape:window-x="0"
     inkscape:window-y="0"
     inkscape:snap-bbox="true"
     inkscape:window-maximized="1"
     inkscape:snap-page="true"
     inkscape:snap-global="true">
    <inkscape:grid
       type="xygrid"
       id="grid2293"
       spacingx="4"
       spacingy="4"
       empspacing="2"
       originx="0"
       originy="0" />
    <inkscape:grid
       id="GridFromPre046Settings"
       type="xygrid"
       originx="0"
       originy="0"
       spacingx="4"
       spacingy="4"
       color="#0000ff"
       empcolor="#0000ff"
       opacity="0.2"
       empopacity="0.4"
       empspacing="2" />
  </sodipodi:namedview>
  <metadata
     id="metadata2611">
    <rdf:RDF>
      <cc:Work
         rdf:about="">
        <dc:format>image/svg+xml</dc:format>
        <dc:type
           rdf:resource="http://purl.org/dc/dcmitype/StillImage" />
        <dc:title></dc:title>
      </cc:Work>
    </rdf:RDF>
  </metadata>
  <g
     inkscape:label="Livello 1"
     inkscape:groupmode="layer"
     id="layer1">
    <path
       style="opacity:0.75836433;fill:#000000;fill-opacity:1;filter:url(#filter2770)"
       d="M 6,6 5.986332,127.05794 H 125.98633 L 126,6 Z"
       id="path7865"
       sodipodi:nodetypes="ccccc"
       inkscape:connector-curvature="0"
       transform="matrix(0.96492763,0,0,0.96492763,0.29376751,0.29307307)" />
    <path
       style="fill:#ffffff;fill-opacity:1;stroke-width:0.96492761"
       d="M 8.0131886,8.0124942 8,120 c 37.333333,0 74.666667,0 112,0 l -0.0684,-0.81415 0.0132,-111.1733558 z"
       id="path34"
       sodipodi:nodetypes="cccccc"
       inkscape:connector-curvature="0" />
    <path
       style="fill:url(#radialGradient2306);fill-opacity:1;stroke-width:0.96492761"
       d="m 16.697537,15.731915 c -0.531675,0 -0.964927,0.433432 -0.964927,0.964928 v 93.597977 h 95.2866 c 1.12141,0.0343 1.20616,-1.54398 1.20616,-1.77908 V 16.696843 c 0,-0.531496 -0.43229,-0.964928 -0.96492,-0.964928 z"
       id="path59"
       sodipodi:nodetypes="cccccccc"
       inkscape:connector-curvature="0" />
    <g
       id="g878"
       transform="translate(0,-23.778319)">
      <path
         id="rect3114"
         d="m 24,88 v -8 h 60 v 8 z"
         style="opacity:1;fill:#404040;fill-opacity:0.83921569;stroke:none;stroke-width:7.506742;stroke-linecap:round;stroke-linejoin:bevel;stroke-miterlimit:4;stroke-dasharray:none;stroke-dashoffset:0;stroke-opacity:1"
         inkscape:connector-curvature="0" />
      <path
         id="rect3126"
         d="M 24,56 V 47.778319 H 84.494988 V 56 Z"
         style="opacity:1;fill:#404040;fill-opacity:0.83921569;stroke:none;stroke-width:8.12681198;stroke-linecap:round;stroke-linejoin:bevel;stroke-miterlimit:4;stroke-dasharray:none;stroke-dashoffset:0;stroke-opacity:1"
         inkscape:connector-curvature="0" />
      <path
         id="path862"
         d="m 24,72 v -8 h 40 v 8 z"
         style="opacity:1;fill:#404040;fill-opacity:0.83921569;stroke:none;stroke-width:6.51861191;stroke-linecap:round;stroke-linejoin:bevel;stroke-miterlimit:4;stroke-dasharray:none;stroke-dashoffset:0;stroke-opacity:1"
         inkscape:connector-curvature="0" />
    </g>
    <g
       id="g2203">
      <path
         id="path907"
         d="m 102.83984,25.966795 a 8.5806052,8.5806052 0 0 0 -6.382809,3.085937 L 74.033203,55.988279 A 8.5806052,8.5806052 0 0 0 74.5625,67.548826 l 4.460938,4.457031 a 8.5806052,8.5806052 0 0 0 10.736328,1.125 L 90.005859,72.970701 90.042969,128 h 26.134761 a 8.5806052,8.5806052 0 0 0 0,-0.006 l -0.0371,-54.88672 a 8.5806052,8.5806052 0 0 0 10.59376,-0.976563 l 4.68359,-4.460937 A 8.5806052,8.5806052 0 0 0 132.0879,55.960796 L 109.63867,29.046873 a 8.5806052,8.5806052 0 0 0 -6.79883,-3.080078 z"
         style="fill:#ffffff;fill-opacity:0.81617647;fill-rule:evenodd;stroke:none;stroke-width:1.12184632"
         inkscape:connector-curvature="0" />
      <path
         id="path3356"
         d="M 103.05078,34.542967 80.626953,61.478514 85.087891,65.935545 98.574219,57.179686 98.623047,128 h 8.974613 l -0.0488,-70.824221 13.26758,8.742188 4.68359,-4.460938 z"
         style="fill:url(#linearGradient3358);fill-opacity:1;fill-rule:evenodd;stroke:none;stroke-width:1.12184632"
         inkscape:connector-curvature="0" />
    </g>
  </g>
</svg>

<?xml version="1.0" encoding="UTF-8" standalone="no"?>
<!-- Created with Inkscape (http://www.inkscape.org/) -->

<svg
   xmlns:dc="http://purl.org/dc/elements/1.1/"
   xmlns:cc="http://creativecommons.org/ns#"
   xmlns:rdf="http://www.w3.org/1999/02/22-rdf-syntax-ns#"
   xmlns:svg="http://www.w3.org/2000/svg"
   xmlns="http://www.w3.org/2000/svg"
   xmlns:xlink="http://www.w3.org/1999/xlink"
   xmlns:sodipodi="http://sodipodi.sourceforge.net/DTD/sodipodi-0.dtd"
   xmlns:inkscape="http://www.inkscape.org/namespaces/inkscape"
   width="128"
   height="128"
   id="svg2606"
   sodipodi:version="0.32"
   inkscape:version="0.92.2 (unknown)"
   version="1.0"
   sodipodi:docname="sc_aligntop.svg"
   inkscape:output_extension="org.inkscape.output.svgz.inkscape"
   inkscape:export-filename="/home/rizmut/Dokumen/Rizmut/Github/libreoffice-style-karasa-jaga/build/images_karasa_Jaga/cmd/sc_aligntop.png"
   inkscape:export-xdpi="12"
   inkscape:export-ydpi="12">
  <defs
     id="defs2608">
    <inkscape:perspective
       sodipodi:type="inkscape:persp3d"
       inkscape:vp_x="0 : 64 : 1"
       inkscape:vp_y="0 : 1000 : 0"
       inkscape:vp_z="128 : 64 : 1"
       inkscape:persp3d-origin="64 : 42.666667 : 1"
       id="perspective44" />
    <linearGradient
       id="linearGradient6111">
      <stop
         style="stop-color:#9c0f0f;stop-opacity:1;"
         offset="0"
         id="stop6113" />
      <stop
         id="stop7088"
         offset="0.5"
         style="stop-color:#e81919;stop-opacity:1;" />
      <stop
         style="stop-color:#cd1313;stop-opacity:1;"
         offset="1"
         id="stop6115" />
    </linearGradient>
    <linearGradient
       id="linearGradient10207">
      <stop
         style="stop-color:#a2a2a2;stop-opacity:1;"
         offset="0"
         id="stop10209" />
      <stop
         style="stop-color:#ffffff;stop-opacity:1;"
         offset="1"
         id="stop10211" />
    </linearGradient>
    <linearGradient
       id="XMLID_12_"
       gradientUnits="userSpaceOnUse"
       x1="96"
       y1="104"
       x2="88.000198"
       y2="96.000198">
      <stop
         offset="0"
         style="stop-color:#888A85"
         id="stop83" />
      <stop
         offset="0.0072"
         style="stop-color:#8C8E89"
         id="stop85" />
      <stop
         offset="0.0673"
         style="stop-color:#ABACA9"
         id="stop87" />
      <stop
         offset="0.1347"
         style="stop-color:#C5C6C4"
         id="stop89" />
      <stop
         offset="0.2652576"
         style="stop-color:#DBDBDA"
         id="stop91" />
      <stop
         offset="0.37646064"
         style="stop-color:#EBEBEB"
         id="stop93" />
      <stop
         offset="0.48740286"
         style="stop-color:#F7F7F6"
         id="stop95" />
      <stop
         offset="0.6324091"
         style="stop-color:#FDFDFD"
         id="stop97" />
      <stop
         offset="1"
         style="stop-color:#FFFFFF"
         id="stop99" />
    </linearGradient>
    <radialGradient
       id="XMLID_8_"
       cx="102"
       cy="112.3047"
       r="139.55859"
       gradientUnits="userSpaceOnUse">
      <stop
         offset="0"
         style="stop-color:#b7b8b9;stop-opacity:1;"
         id="stop41" />
      <stop
         offset="0.18851049"
         style="stop-color:#ECECEC"
         id="stop47" />
      <stop
         offset="0.25718147"
         style="stop-color:#FAFAFA"
         id="stop49" />
      <stop
         offset="0.30111277"
         style="stop-color:#FFFFFF"
         id="stop51" />
      <stop
         offset="0.5313"
         style="stop-color:#FAFAFA"
         id="stop53" />
      <stop
         offset="0.8449"
         style="stop-color:#EBECEC"
         id="stop55" />
      <stop
         offset="1"
         style="stop-color:#E1E2E3"
         id="stop57" />
    </radialGradient>
    <clipPath
       clipPathUnits="userSpaceOnUse"
       id="clipPath7084">
      <path
         style="fill:#000000;fill-opacity:1;fill-rule:evenodd;stroke:none;stroke-width:1px;stroke-linecap:butt;stroke-linejoin:miter;stroke-opacity:1"
         d="M 72,88 L 40,120 L 32,120 L 32,80 L 72,80 L 72,88 z"
         id="path7086" />
    </clipPath>
    <filter
       inkscape:collect="always"
       id="filter2770">
      <feGaussianBlur
         inkscape:collect="always"
         stdDeviation="2.0786429"
         id="feGaussianBlur2772" />
    </filter>
    <radialGradient
       inkscape:collect="always"
       xlink:href="#XMLID_8_"
       id="radialGradient2306"
       gradientUnits="userSpaceOnUse"
       gradientTransform="matrix(1,0,0,0.9996653,-3.999999,11.503013)"
       cx="108"
       cy="128.54001"
       r="139.55859"
       fx="108"
       fy="128.54001" />
    <linearGradient
       id="linearGradient2399-4">
      <stop
         style="stop-color:#03519e;stop-opacity:1"
         offset="0"
         id="stop2401-6" />
      <stop
         style="stop-color:#044c96;stop-opacity:1"
         offset="1"
         id="stop2403-5" />
    </linearGradient>
    <linearGradient
       inkscape:collect="always"
       xlink:href="#linearGradient2399-4"
       id="linearGradient3358"
       gradientUnits="userSpaceOnUse"
       gradientTransform="matrix(-5.5029337e-4,-1.1218461,1.1218461,-5.5029337e-4,71.704181,169.18074)"
       x1="113.15723"
       y1="25.786163"
       x2="39.268185"
       y2="25.786163" />
  </defs>
  <sodipodi:namedview
     id="base"
     pagecolor="#ffffff"
     bordercolor="#666666"
     borderopacity="1.0"
     inkscape:pageopacity="0.0"
     inkscape:pageshadow="2"
     inkscape:zoom="2"
     inkscape:cx="93.213188"
     inkscape:cy="25.897012"
     inkscape:document-units="px"
     inkscape:current-layer="layer1"
     width="128px"
     height="128px"
     showgrid="false"
     inkscape:grid-points="true"
     showguides="true"
     inkscape:guide-bbox="true"
     inkscape:window-width="1366"
     inkscape:window-height="691"
     inkscape:window-x="0"
     inkscape:window-y="26"
     inkscape:snap-bbox="true"
     inkscape:window-maximized="1"
     inkscape:snap-page="true"
     inkscape:snap-global="false">
    <inkscape:grid
       type="xygrid"
       id="grid2293"
       spacingx="4"
       spacingy="4"
       empspacing="2"
       originx="0"
       originy="0" />
    <inkscape:grid
       id="GridFromPre046Settings"
       type="xygrid"
       originx="0"
       originy="0"
       spacingx="4"
       spacingy="4"
       color="#0000ff"
       empcolor="#0000ff"
       opacity="0.2"
       empopacity="0.4"
       empspacing="2" />
  </sodipodi:namedview>
  <metadata
     id="metadata2611">
    <rdf:RDF>
      <cc:Work
         rdf:about="">
        <dc:format>image/svg+xml</dc:format>
        <dc:type
           rdf:resource="http://purl.org/dc/dcmitype/StillImage" />
        <dc:title></dc:title>
      </cc:Work>
    </rdf:RDF>
  </metadata>
  <g
     inkscape:label="Livello 1"
     inkscape:groupmode="layer"
     id="layer1">
    <path
       style="opacity:0.75836433;fill:#000000;fill-opacity:1;filter:url(#filter2770)"
       d="M 3.999999,5.499997 V 124.5 H 124 V 5.499997 Z"
       id="path7865"
       sodipodi:nodetypes="ccccc"
       inkscape:connector-curvature="0" />
    <path
       style="fill:#ffffff;fill-opacity:1"
       d="M 5.999999,7.499997 V 121.5 H 121.15625 L 122,120.65625 V 7.499997 Z"
       id="path34"
       sodipodi:nodetypes="cccccc"
       inkscape:connector-curvature="0" />
    <path
       style="fill:url(#radialGradient2306);fill-opacity:1"
       d="m 14.999999,15.499997 c -0.551,0 -1,0.449185 -1,1 V 113.5 H 112.75 c 1.16217,0.0355 1.25,-1.60011 1.25,-1.84375 V 16.499997 c 0,-0.550815 -0.448,-1 -1,-1 z"
       id="path59"
       sodipodi:nodetypes="cccccccc"
       inkscape:connector-curvature="0" />
    <path
       inkscape:connector-curvature="0"
       style="opacity:1;fill:#404040;fill-opacity:0.83921569;stroke:none;stroke-width:5.40797758;stroke-linecap:round;stroke-linejoin:bevel;stroke-miterlimit:4;stroke-dasharray:none;stroke-dashoffset:0;stroke-opacity:1"
       d="m 22.992097,28.220195 v 4.221681 h 59.009592 v -4.221681 z"
       id="rect3114" />
    <path
       inkscape:connector-curvature="0"
       style="opacity:1;fill:#404040;fill-opacity:0.83921569;stroke:none;stroke-width:5.82348013;stroke-linecap:round;stroke-linejoin:bevel;stroke-miterlimit:4;stroke-dasharray:none;stroke-dashoffset:0;stroke-opacity:1"
       d="M 22.992097,71.778789 V 76.00047 H 83.487085 V 71.778789 Z"
       id="rect3126" />
    <image
       y="0.54578483"
       x="-126.90843"
       id="image4345"
       xlink:href="data:image/png;base64,iVBORw0KGgoAAAANSUhEUgAAABAAAAAQCAYAAAAf8/9hAAAABHNCSVQICAgIfAhkiAAAAAlwSFlz AAABsQAAAbEBYZgoDgAAABl0RVh0U29mdHdhcmUAd3d3Lmlua3NjYXBlLm9yZ5vuPBoAAAH7SURB VDiNnZM9aFNRFMd/576bF9KEtvnoIiZgobhICp21XZzNkCEQKCi4iINDR+fGxVFBghAyubRmc4m4 CW5iEIcOTg4vDXXwpS197/Zeh9B8mAji2e459/74/8+5R9rtdtlaq/iPUEpZ7Zz7UigUEJG/XvR9 f6ZurSWKIk5OTtAA29vbRFG08LHneSSTyfHZOUcURXieR6fTGQHCMKTZbP6z9GKxSK1WAxgBRASl 5tvwpy3n3FjVVWiA5eVl9vb2xkml1Izs6fwVyBiDiEwUTHtOJBLjnHMOay0XVvPyQ0Q6CfmM4t5m gnK5PAIMh0NardbCSTjnqNfrZPJFPn03rKSES3tJMae4sbY2AjjnGAwGCx8DHB8fUyqV6DxOA/Dk zTk4JhZWV1dpNBporRERjDFYayeN0noOPu7LdA+MMRhjcM4hIogIvu9jRfP07Tmtj/N/RQOcnZ1x cHAwU8hms1SrVX6ewoPWKUfBJa/vJ+YsaoA4jun1ejPFSqVC8Mtx9/mQwdCRTwvP3l2wshShBJAp Bblcjv39/RmA7/sorbi9oel8jgHYualZSQmFjLBVUhx9G4wA3W534QjX19d5tbvBZsnjxfsLcmnh 4R2fMAwJfgzo9XpoEdns9/sL1zkIAlKp1M6jneuNW9e8pVRCiOP46+Hh4S6M1vk3vb241S+UhmcA AAAASUVORK5CYII= "
       preserveAspectRatio="none"
       height="126.90843"
       width="126.90843" />
    <path
       inkscape:connector-curvature="0"
       style="opacity:1;fill:#404040;fill-opacity:0.83921569;stroke:none;stroke-width:4.62508392;stroke-linecap:round;stroke-linejoin:bevel;stroke-miterlimit:4;stroke-dasharray:none;stroke-dashoffset:0;stroke-opacity:1"
       d="m 22.992097,48.000284 v 4.221681 h 38.158701 v -4.221681 z"
       id="path862" />
    <path
       style="fill:#ffffff;fill-opacity:0.81617647;fill-rule:evenodd;stroke:none;stroke-width:1.12184632"
       d="M 102.83984 25.966797 A 8.5806052 8.5806052 0 0 0 96.457031 29.052734 L 74.033203 55.988281 A 8.5806052 8.5806052 0 0 0 74.5625 67.548828 L 79.023438 72.005859 A 8.5806052 8.5806052 0 0 0 89.759766 73.130859 L 90.005859 72.970703 L 90.042969 128 L 116.17773 128 A 8.5806052 8.5806052 0 0 0 116.17773 127.99414 L 116.14062 73.107422 A 8.5806052 8.5806052 0 0 0 126.73438 72.130859 L 131.41797 67.669922 A 8.5806052 8.5806052 0 0 0 132.08789 55.960938 L 109.63867 29.046875 A 8.5806052 8.5806052 0 0 0 102.83984 25.966797 z "
       id="path907" />
    <path
       style="fill:url(#linearGradient3358);fill-opacity:1;fill-rule:evenodd;stroke:none;stroke-width:1.12184632"
       d="M 103.05078 34.542969 L 80.626953 61.478516 L 85.087891 65.935547 L 98.574219 57.179688 L 98.623047 128 L 107.59766 128 L 107.54883 57.175781 L 120.81641 65.917969 L 125.5 61.457031 L 103.05078 34.542969 z "
       id="path3356" />
    <image
       y="117.87097"
       x="174.87097"
       id="image901"
       xlink:href="data:image/png;base64,iVBORw0KGgoAAAANSUhEUgAAABYAAAAWCAYAAADEtGw7AAAABHNCSVQICAgIfAhkiAAAAAlwSFlz
AAACYQAAAmEBwTBV+gAAABl0RVh0U29mdHdhcmUAd3d3Lmlua3NjYXBlLm9yZ5vuPBoAAAI1SURB
VDiNtZW/a1NRFMc/9777Hn0opAaHBgodsggZYqGDk7RSl26pW/wLnPwT1BYUl27udk27FJoOFSo4
aAahQikuNWOIImgqSTC57x6HNElfftiA8QtvOe+c7/ue77n3PLW9vd1OJBKGKaJWq1kThqFZXl6e
Ji+Hh4fGACilpkoM8H+Ju6hWq5RKJUTkr0VKKZaWlpifnx9PrJTqKVZKYa3FOXclsdZ6bKdKqbgV
qVSKfD6P1pp2u32l8i7KlR94WrEwN9tXfPkrrVaL4+NjoigCIIqiHrkxhkwmQxiGMdLvtQZ3t04w
OD49vcPs9Zk+sdaaIAg4OzujWCwOKRURlFIkk0nS6XQv/rttuf/yPT+TtwFh9fk7PmysdoTu7OzI
2toaWmt83x/pm3NupDUPt444KDtueg08hK/2Guu3fB6k632PRYRms0mlUhk7PGstIoLneeiZBOfn
vzh5ssLj1x8Jfc2L/CKPXr2lltLx4Z2enlIoFCYaWi6Xo7iR67QNKBEW5m5wsLnO/v5+/Bxns1my
2Sxd340ZvUKcc1hr+wFxIDqWM/bmiQjWWowxQ+89z+ud+YtkQGJ5uks86oG+r4OIDVsciIvV6aGK
ERhHrpTq2CVyoXoCKwYRRVHPgkFyRNCaYSsmRfdGDilHUAMNGRGhXq9PTO77PkEQxGIuihDprITu
RTKNRuPN3t7ePy3kL+Vvi4Gv7e7u7slFaLLtdSXubRZZeVa4HJrOT9S1P+Oi5uXQH5VY76ooq3GX
AAAAAElFTkSuQmCC
"
       preserveAspectRatio="none"
       height="136.25806"
       width="136.25806" />
  </g>
</svg>
